X:1
T:Partita II Sinfonia
T:BWV 826
T:J.S. Bach
%%score { ( 1 2 5 ) | ( 3 4 6 ) }
L:1/8
Q:1/4=60
M:4/4
K:Eb
V:1 treble nm="Harp"
V:2 treble 
V:5 treble 
V:3 bass 
V:4 bass 
V:6 bass 
V:1
"^Lent" e2 z/ e/d/>e/ f2 z/ f/f/>g/ | a>a a/g/4f/<g/d/4 e2 z/ g/g/>a/ | b2 z/ B/B/>c/ _d>d =e2 | %3
 f2 z/ f/g/>a/ d2 z/ d/g/>e/ | c2- c/4e/4_d/4c/<d/f/4 =B/>c/B/>c/ =d2- | %5
 d4- d/>G/=A/>=B/ c/>[GB]/[Ac]/>[Bd]/ | e>e ^f2 g4 | %7
[Q:1/4=96]"^Andante" G/c/4d/4e- e/d/4c/4e/4d/4c/4=B/4 c/G/A/F/ G/c/G/F/ | %8
 E/c/4d/4e/4d/4c/ g/c/a/c/ =B/c/d/B/ G/ z/ z | %9
 g/4f/4e/4d/4c/B/- B/_dc/ a/4g/4f/4=e/4f- f/4g/4a/4g/4f/4_e/4=d/4e/4 | %10
 f/4e/4d/4c/4B/A/- A/cB/ g/4f/4e/4d/4e- e/4f/4g/4f/4e/4d/4c/4=B/4 | %11
 c/4B/4A/4G/4F/e/- e/d/4c/4e/4d/4c/4=B/4 c/4d/4e/4f/4g/c/- c/B/4c/4d/4c/4B/4c/4 | %12
 a/4g/4f/4=e/4f/_d/- d/c/4d/4_e/4d/4c/4d/4 g/4f/4e/4=d/4e/c/- c/=B/4c/4d/4c/4B/4c/4 | %13
 f/4c/4=B/4=A/4B/d/ f/4_B/4_A/4G/4A/c/ f/4A/4G/4F/4G- G/4f/4g/4a/4g/f/ | %14
 g/=Bc/- c/_B/4A/4G/4F/4E/4D/4 E/4G/4^E/4_E/4F/4E/4D/4E/4 DC | %15
 z G- G/4A/4G/4F/4G/A/ B/d/e- e/4B/4e/4f/4g/e/ | %16
 _d/c/f- f/4c/4f/4g/4a/f/ e/c/=d- d/4f/4g/4a/4b/4a/4g/4a/4 | %17
 b/4a/4g/-g/4f/4=e/- e/4d/4c/-c/4g/4a/4b/4 a/4g/4f/-f/4_e/4_d/- d/4c/4B/-B/4f/4g/4a/4 | %18
 g/4f/4=e/4f/4b/4f/4e/4f/4 a/4f/4e/4f/4g/4f/4e/4f/4 f2- f/4_e/4d/4e/4f/4d/4e/4f/4 | %19
 B/4d/4f/4g/4a- a/4g/4f/4a/4g/4f/4e/4d/4 e/4B/4e/4f/4g- g/4f/4e/4g/4f/4e/4d/4c/4 | %20
 b/4=a/4g/4^f/4e/d/- d/4g/4a/4b/4^c/d/- d/4f/4g/4a/4=c/4e/4d/4c/4 f/4d/4=e/4f/4g/4a/4b/4c'/4 | %21
 b/4=a/4g/4^f/4-f/g/- g/de/- _e/=Bc/- c/4_B/4A/4G/4A/c/ | %22
 ^F/4e/4d/4c/<b/a/4 g(4:3:4g/4^f/4g/4f/4g/4 g2- g/4=f/4g/4a/4g/4f/4e/4d/4 | %23
 f/4e/4d/4c/4g- g/4e/4f/4g/4f/4e/4d/4c/4 e/4d/4c/4B/4g- g/4d/4e/4f/4e/4d/4c/4B/4 | %24
 d/4c/4B/4=A/4g- g/4c/4d/4e/4d/4c/4B/4A/4 c/4B/4A/4G/4g- g/4B/4c/4d/4c/4B/4A/4G/4 | %25
 A2- A/4A/4G/4A/4B/4A/4G/4A/4 e2- e/4c/4=B/4c/4d/4c/4B/4c/4 | %26
 ^f/ed/ g/dc/ =a/cB/- B/4d/4c/4B/4g/4B/4=A/4G/4 | %27
 !fermata!b-b/4=a/4g/4^f/4 g/4b/4a/4g/4f/4=e/4d/4c/4 B/4d/4c/4_e/4d/4g/4f/4=e/4 d/4c/4B/4=A/4B/4d/4B/4G/4 | %28
 z/ =e/4^f/4g/4f/8g/8f/8e/8f/8g/8 B/4=A/4G/4^F/4G/<B/- B/c/4B/4A/4B/4c/4A/4 F>G | %29
[M:3/4][Q:1/4=132]"^Allegro" GG/=A/ =Bc de | f/e/d/e/ fg ad | f=B dG g/f/e/d/ | %32
 e c'2 b/a/ g/f/e/d/ | c2- c/d/=e/f/ g/a/b/g/ | =e_d'- d'/g/a/b/ a/g/f/e/ | %35
 f/g/a- a/g/f/e/ d/c/d/f/ | e/f/g- g/f/e/d/ c/=B/c/e/ | d/a/d/c/ d/e/f/g/ f/e/d/c/ | %38
 =B/g/f/e/ d/f/d/c/ B/d/B/=A/ | G/=A/=B/c/ d/c/B/c/ d/e/f/d/ | =B/c/d/e/ f/a/g/f/ e/d/c/_B/ | %41
 c/d/e/c/ =Ac Fe | B/c/d/B/ GB Ed | =A/B/c/A/ ^FA Dc | G/=A/B/G/ E/G/D/G/ ^C/B/A/G/ | %45
 ^F/=E/D/E/ FG =AB | c/B/=A/B/ cd eA | c^F =AD d/c/B/A/ | B/=A/G/A/ Bc de | %49
 f/e/d/c/ B/f/c/B/ A/f/B/A/ | G/F/E/F/ G=A =Bc | d/c/=B/=A/ G/d/_A/G/ d/c/B/=A/ | %52
 E/c/G/F/ E/F/G/A/ G/c/G/F/ | E/c/G/F/ E/F/G/A/ G/c/G/F/ | =E/B/G/F/ E/F/G/A/ G/B/G/F/ | %55
 =E/B/G/F/ E/G/B/_d/ c/B/A/G/ | A/f/c/B/ A/B/c/_d/ c/f/c/B/ | A/f/c/B/ A/B/c/_d/ c/f/c/B/ | %58
 =A/f/c/B/ A/B/c/_d/ c/f/c/B/ | =A/e/c/B/ A/c/e/_g/ f/e/_d/c/ | _dB cd ed | cA Bc _dc | BA BG AB | %63
 =E/D/C/D/ EF GA | B/A/G/A/ Bc _dG | B=E GC c/B/A/G/ | A/G/F- F/A/G/F/ E/D/C/B,/ | %67
 G/F/E- E/G/F/E/ D/C/=B,/C/ | F/E/D- D/F/E/D/ C/=B,/=A,/G,/ | E/F/G- GF/E/ D/=A/=B/c/ | %70
 d/c/=B/c/ d/g/f/e/ d/c/B/=A/ | G2- G/=A/=B/c/ d/e/f/d/ | =Ba- a/d/e/f/ e/d/c/B/ | %73
 c2- c/g/_d/c/ B/e/B/A/ | G/A/B/c/ _dB g2- | gc/B/ A/f/B/A/ G/_d/G/F/ | %76
 =E/F/G/A/ BG f/4e/4f/4e/4f/4e/4d/4e/4 | fF/G/ AB cd | e/d/c/d/ ef ga | %79
 =B/g/d/c/ B/c/d/e/ d/g/d/c/ | =B/g/d/c/ B/c/d/e/ d/g/d/c/ | =B/f/d/c/ B/c/d/e/ d/f/d/c/ | %82
 =B/f/d/c/ B/d/f/a/ g/f/e/d/ | e/f/g/e/ c/f/e/d/ d/c/B/A/ | G/A/B- B/c/B/A/ G/F/=E/D/ | %85
 C/G/C/B,/ C/D/=E/F/ E/G/C/B,/ | C/G/F/=E/ F/C/F/G/ A/B/c/d/ | e/d/c/d/ ef/g/ a_d | %88
 f=B dG g/f/e/d/ | e>c c2 c/4=B/4c/4B/4c/4B/4c/ | c4 z2 |] %91
V:2
 [Gc]2 z/ c/=B/>c/ d2 z/ d/d/>e/ | f>f f z [Gc]2 z/ e/e/>f/ | g2 z/ G/G/>A/ B>B _d/c/4B/<c/G/4 | %3
 [Ac]2 z2 z/ F/F/>G/ G2 | z/ E/E/>F/ F2 G/>=A/G/>A/ =B2- | B>D F>A G/>F/E/>D/ E/>D/E/>F/ | %6
 c>c e/d/4c/<d/=A/4 d4 | x8 | x8 | x8 | x8 | x8 | x8 | x8 | x8 | x8 | x8 | x8 | x8 | x8 | x8 | x8 | %22
 x8 | x8 | x8 | x8 | x8 | x8 | z2 z G- G2 D2 |[M:3/4] D z z4 | x6 | x6 | x6 | x6 | x6 | x6 | x6 | %37
 x6 | x6 | x6 | x6 | x6 | x6 | x6 | x6 | x6 | x6 | x6 | x6 | x6 | x6 | x6 | x6 | x6 | x6 | x6 | %56
 x6 | x6 | x6 | x6 | x6 | x6 | x6 | x6 | x6 | x6 | x6 | x6 | x6 | x6 | x6 | x6 | x6 | x6 | x6 | %75
 x6 | x6 | x6 | x6 | x6 | x6 | x6 | x6 | x6 | x6 | x6 | x6 | x6 | x6 | z z/ [E=A]/ [DG]4 | %90
 [EG]4 z2 |] %91
V:3
 [E,G,C]2 z2 [D,F,=A,=B,]2 z2 | z2 [D,F,=B,]2 [E,G,C]2 z2 | [=E,G,C]2 z2 z2 [G,C]2 | %3
 [F,A,C]2 z2 z/ [D,A,]/[D,A,]/>[D,G,]/ [D,G,]2 | z/ G,/G,/>F,/ F,2- F,2 z/ F,/F,/>G,/ | %5
 A,>A,- A,/G,/4F,/4G,/D,/ E,2 z2 | z2 [C,E,=A,]2 [D,G,]4 | C,CF,G, E,C,E,G, | %8
 CA,E,F, G,G,, z/ F/E/D/ | EG =EC FA FC | DF DB, EG EC | A,C FA, G,C EG, | F,A, G,F, E,G, F,E, | %13
 D,F, A,C, =B,,D, G,D, | E,A,, F,,G,, C,,2- C,,/D,,/4E,,/4F,,/4G,,/4=A,,/4=B,,/4 | %15
 C,C B,A, G,B, G,E, | A,C A,F, B,A, G,F, | =E,G, CE, F,A, F,_D, | %18
 B,,G,, C,C,, F,,/G,,/4A,,/4B,,/4C,/4D,/4=E,/4 F,_E, | D,F, D,B,, G,B, E,G, | %20
 =A,,^F, G,G,, D,=A, CD, | G,=A, B,=B, CD EC | A,G, DD, G,A, =B,G, | CE C=A, B,D B,G, | %24
 =A,C A,^F, G,B, G,E, | %25
 C,/D,/4E,/4F,/4G,/4A,/4B,/4 C/C,/C- C/4C,/4D,/4E,/4F,/4G,/4A,/4B,/4 C/C,/C- | %26
 CC, B,,B, ^F,D, G,E, | !fermata![=E,G,]2 z2 [G,B,D]4 | ^C2- C>C D=C/B,/ =A,/B,/A, | %29
[M:3/4] [G,=B,] z z4 | z6 | z6 |[K:treble] z C/D/ EF GA | B/A/G/A/ Bc _dG | B=E GC c/B/A/G/ | %35
 AF GA BA | GE FG AG | FE FD EF | GG,/=A,/ =B,C DE | F/E/D/E/ FG AD | F=B, DG, G/F/E/D/ | %41
[K:bass] E/D/C- C/E/D/C/ B,/=A,/G,/F,/ | D/C/B,- B,/D/C/B,/ =A,/G,/^F,/G,/ | %43
 C/B,/=A,- A,/C/B,/A,/ G,/^F,/=E,/D,/ | B,D G,B, =E,^C | DD,- D,C,/B,,/ =A,,/G,,/^F,,/=E,,/ | %46
 D,,2- D,,/=E,,/^F,,/G,,/ =A,,/B,,/C,/A,,/ | ^F,,E,- E,/=A,,/B,,/C,/ B,,/A,,/G,,/F,,/ | %48
 G,,2 z/ G,/A,/B,/ A,/G,/F,/E,/ | D,F, D,B,, C,D, | E,E,, z/ E,/F,/G,/ F,/E,/D,/C,/ | %51
 =B,,D, _B,,G,, =B,,D, | C,C,, z/ D/E/F/ ED | CC, z/ A,/B,/C/ B,A, | G,C, z/ D/=E/F/ ED | %55
 CC, z/ D,/=E,/F,/ E,C, | F,F,, z/[I:staff -1] G/A/B/ AG | F[I:staff +1]F, z/ _D/E/F/ ED | %58
[I:staff -1] F[I:staff +1]F, z/ _D/E/F/ E=D |[I:staff -1] F[I:staff +1]F, z/ G,/=A,/B,/ A,F, | %60
 B,/C/_D- D/C/B,/A,/ G,/F,/G,/B,/ | A,/B,/C- C/B,/A,/G,/ F,/=E,/F,/A,/ | %62
 G,/_D/G,/F,/ G,/A,/B,/C/ B,/A,/G,/F,/ | CB,/A,/ G,/C/B,/A,/ G,/F,/=E,/D,/ | %64
 C,2- C,/D,/=E,/F,/ G,/A,/B,/G,/ | =E,_D- D/G,/A,/B,/ A,/G,/F,/E,/ | F,/G,/A,/F,/ D,F, B,,A, | %67
 E,/F,/G,/E,/ C,E, A,,G, | D,/E,/F,/D,/ =B,,D, G,,F, | C,/D,/E,/C,/ A,,/C,/G,,/C,/ ^F,,/E,/D,/C,/ | %70
 =B,,/=A,,/G,,/A,,/ B,,C, D,E, | F,/E,/D,/E,/ F,G, A,D, | F,=B,, D,G,, G,/F,/E,/D,/ | %73
 E,/D,/C,/D,/ E,F, G,A, | B,/A,/G,/F,/ E,/B,/F,/E,/ _D,/B,/E,/D,/ | C,/B,,/A,,/B,,/ C,D, =E,F, | %76
 G,/F,/=E,/D,/ C,/G,/_D,/C,/ B,,/G,/C,/B,,/ | A,,/F,/A,,/G,,/ F,,/C,/_D,/G,,/ =A,,/E,/F,/=B,,/ | %78
 C,/F,/E,/D,/ C,/G,/A,/D,/ E,/=B,/C/F,/ | G,G,, z/[I:staff -1] =A/=B/c/ BA | %80
 G[I:staff +1]G, z/[I:staff -1] E/F/G/ FE | D[I:staff +1]G, z/ =A,/=B,/C/ B,A, | %82
 G,G,, z[I:staff -1] G/F/ E/D/C/=B,/ |[I:staff +1] CC,/D,/ E,F, G,A, | B,/A,/G,/A,/ B,C _DG, | %85
 B,=E, G,C, C/B,/A,/G,/ | A,2- A,/B,/A,/G,/ F,/G,/A,/F,/ | %87
 G,/F,/E,/D,/ C,/B,,/A,,/G,,/ F,,/F,/=E,/F,/ | A,/F,/=E,/F,/ =B,,/F,/_E,/D,/ E,/G,/C,/E,/ | %89
 ^F,,>^F, G,2 G,,2 | C,,4 z2 |] %91
V:4
 C,2 z2 C,2 z2 | z2 C,2 C,2 z2 | C,2 z2 z2 C,2 | C,2 z2 z/ C,/C,/>B,,/ B,,2 | %4
 z/ C,/C,/>C,/ C,2 D,2 z/ D,/D,/>E,/ | F,>F, =B,,>B,, C,2 z2 | z2 G,,2 G,,4 | x8 | x8 | x8 | x8 | %11
 x8 | x8 | x8 | x8 | x8 | x8 | x8 | x8 | x8 | x8 | x8 | x8 | x8 | x8 | x8 | x8 | ^C,2 z2 D,4- | %28
 D,8 |[M:3/4] G,, z z4 | x6 | x6 |[K:treble] x6 | x6 | x6 | x6 | x6 | x6 | x6 | x6 | x6 | %41
[K:bass] x6 | x6 | x6 | x6 | x6 | x6 | x6 | x6 | x6 | x6 | x6 | x6 | x6 | x6 | x6 | x6 | x6 | x6 | %59
 x6 | x6 | x6 | x6 | x6 | x6 | x6 | x6 | x6 | x6 | x6 | x6 | x6 | x6 | x6 | x6 | x6 | x6 | x6 | %78
 x6 | x6 | x6 | x6 | x6 | x6 | x6 | x6 | x6 | x6 | x6 | x6 | x6 |] %91
V:5
 x8 | x8 | c2 z2 z2 B z | x8 | x8 | x8 | G2 [=Ac] z =B4 | x8 | x8 | x8 | x8 | x8 | x8 | x8 | x8 | %15
 x8 | x8 | x8 | x8 | x8 | x8 | x8 | x8 | x8 | x8 | x8 | x8 | x8 | x8 |[M:3/4] x6 | x6 | x6 | x6 | %33
 x6 | x6 | x6 | x6 | x6 | x6 | x6 | x6 | x6 | x6 | x6 | x6 | x6 | x6 | x6 | x6 | x6 | x6 | x6 | %52
 x6 | x6 | x6 | x6 | x6 | x6 | x6 | x6 | x6 | x6 | x6 | x6 | x6 | x6 | x6 | x6 | x6 | x6 | x6 | %71
 x6 | x6 | x6 | x6 | x6 | x6 | x6 | x6 | x6 | x6 | x6 | x6 | x6 | x6 | x6 | x6 | x6 | x6 | x6 | %90
 x6 |] %91
V:6
 x8 | x8 | x8 | x8 | z/ B,,/B,,/>A,,/ B,,/4A,,/4B,,/4A,,/4B,,/4A,,/4B,,/4A,,/4 G,,2 z2 | %5
 z2 G,,2 G,,2 z2 | x8 | x8 | x8 | x8 | x8 | x8 | x8 | x8 | x8 | x8 | x8 | x8 | x8 | x8 | x8 | x8 | %22
 x8 | x8 | x8 | x8 | x8 | x8 | z6 =A,2 |[M:3/4] x6 | x6 | x6 |[K:treble] x6 | x6 | x6 | x6 | x6 | %37
 x6 | x6 | x6 | x6 |[K:bass] x6 | x6 | x6 | x6 | x6 | x6 | x6 | x6 | x6 | x6 | x6 | x6 | x6 | x6 | %55
 x6 | x6 | x6 | x6 | x6 | x6 | x6 | x6 | x6 | x6 | x6 | x6 | x6 | x6 | x6 | x6 | x6 | x6 | x6 | %74
 x6 | x6 | x6 | x6 | x6 | x6 | x6 | x6 | x6 | x6 | x6 | x6 | x6 | x6 | x6 | x6 | x6 |] %91

